assets/icons/sec_bg.svg

<svg width="84" height="84" viewBox="0 0 84 84" fill="none" xmlns="http://www.w3.org/2000/svg">
<rect x="1" y="1" width="82" height="82" rx="41" fill="url(#paint0_radial_6606_1653)" stroke="#C40ED4" stroke-width="2"/>
<mask id="mask0_6606_1653" style="mask-type:alpha" maskUnits="userSpaceOnUse" x="0" y="0" width="84" height="84">
<rect x="1" y="1" width="82" height="82" rx="41" fill="url(#paint1_radial_6606_1653)" stroke="#C40ED4" stroke-width="2"/>
</mask>
<g mask="url(#mask0_6606_1653)">
<g style="mix-blend-mode:overlay" opacity="0.2">
<mask id="path-3-inside-1_6606_1653" fill="white">
<path fill-rule="evenodd" clip-rule="evenodd" d="M49.9286 5H34.0714L37.9658 32.2605L21.4434 10.2307L10.2307 21.4434L32.2606 37.9658L5 34.0714V49.9285L32.2605 46.0342L10.2306 62.5566L21.4433 73.7692L37.9658 51.7393L34.0714 79H49.9286L46.0342 51.7393L62.5566 73.7692L73.7693 62.5566L51.7395 46.0342L79 49.9286V34.0714L51.7394 37.9658L73.7693 21.4434L62.5566 10.2307L46.0342 32.2606L49.9286 5Z"/>
</mask>
<path fill-rule="evenodd" clip-rule="evenodd" d="M49.9286 5H34.0714L37.9658 32.2605L21.4434 10.2307L10.2307 21.4434L32.2606 37.9658L5 34.0714V49.9285L32.2605 46.0342L10.2306 62.5566L21.4433 73.7692L37.9658 51.7393L34.0714 79H49.9286L46.0342 51.7393L62.5566 73.7692L73.7693 62.5566L51.7395 46.0342L79 49.9286V34.0714L51.7394 37.9658L73.7693 21.4434L62.5566 10.2307L46.0342 32.2606L49.9286 5Z" fill="url(#paint2_radial_6606_1653)"/>
<path d="M34.0714 5V3.40741H32.2351L32.4948 5.22523L34.0714 5ZM49.9286 5L51.5051 5.22523L51.7648 3.40741H49.9286V5ZM37.9658 32.2605L36.6917 33.2161L39.5424 32.0353L37.9658 32.2605ZM21.4434 10.2307L22.7175 9.27513L21.6157 7.80611L20.3173 9.10455L21.4434 10.2307ZM10.2307 21.4434L9.10458 20.3172L7.80613 21.6157L9.27515 22.7174L10.2307 21.4434ZM32.2606 37.9658L32.0353 39.5424L33.2161 36.6917L32.2606 37.9658ZM5 34.0714L5.22523 32.4948L3.40741 32.2351V34.0714H5ZM5 49.9285H3.40741V51.7648L5.22523 51.5051L5 49.9285ZM32.2605 46.0342L33.216 47.3083L32.0352 44.4576L32.2605 46.0342ZM10.2306 62.5566L9.27509 61.2825L7.80607 62.3843L9.10451 63.6827L10.2306 62.5566ZM21.4433 73.7692L20.3172 74.8954L21.6156 76.1938L22.7174 74.7248L21.4433 73.7692ZM37.9658 51.7393L39.5424 51.9645L36.6917 50.7837L37.9658 51.7393ZM34.0714 79L32.4948 78.7748L32.2351 80.5926H34.0714V79ZM49.9286 79V80.5926H51.7648L51.5051 78.7748L49.9286 79ZM46.0342 51.7393L47.3083 50.7838L44.4576 51.9646L46.0342 51.7393ZM62.5566 73.7692L61.2825 74.7248L62.3843 76.1938L63.6827 74.8954L62.5566 73.7692ZM73.7693 62.5566L74.8954 63.6827L76.1939 62.3843L74.7249 61.2825L73.7693 62.5566ZM51.7395 46.0342L51.9647 44.4576L50.7839 47.3083L51.7395 46.0342ZM79 49.9286L78.7748 51.5051L80.5926 51.7648V49.9286H79ZM79 34.0714H80.5926V32.2351L78.7748 32.4948L79 34.0714ZM51.7394 37.9658L50.7839 36.6917L51.9647 39.5424L51.7394 37.9658ZM73.7693 21.4434L74.7249 22.7174L76.1939 21.6157L74.8954 20.3172L73.7693 21.4434ZM62.5566 10.2307L63.6827 9.10455L62.3843 7.80611L61.2825 9.27513L62.5566 10.2307ZM46.0342 32.2606L44.4576 32.0353L47.3083 33.2161L46.0342 32.2606ZM34.0714 6.59259H49.9286V3.40741H34.0714V6.59259ZM39.5424 32.0353L35.648 4.77477L32.4948 5.22523L36.3892 32.4857L39.5424 32.0353ZM39.2399 31.305L22.7175 9.27513L20.1693 11.1862L36.6917 33.2161L39.2399 31.305ZM20.3173 9.10455L9.10458 20.3172L11.3568 22.5695L22.5695 11.3568L20.3173 9.10455ZM9.27515 22.7174L31.305 39.2399L33.2161 36.6917L11.1863 20.1693L9.27515 22.7174ZM4.77477 35.648L32.0353 39.5424L32.4858 36.3892L5.22523 32.4948L4.77477 35.648ZM6.59259 49.9285V34.0714H3.40741V49.9285H6.59259ZM32.0352 44.4576L4.77477 48.352L5.22523 51.5051L32.4857 47.6108L32.0352 44.4576ZM11.1862 63.8306L33.216 47.3083L31.3049 44.7601L9.27509 61.2825L11.1862 63.8306ZM22.5695 72.6431L11.3568 61.4304L9.10451 63.6827L20.3172 74.8954L22.5695 72.6431ZM36.6917 50.7837L20.1693 72.8137L22.7174 74.7248L39.2399 52.6949L36.6917 50.7837ZM35.648 79.2252L39.5424 51.9645L36.3892 51.5141L32.4948 78.7748L35.648 79.2252ZM49.9286 77.4074H34.0714V80.5926H49.9286V77.4074ZM44.4576 51.9646L48.352 79.2252L51.5051 78.7748L47.6108 51.5141L44.4576 51.9646ZM63.8307 72.8137L47.3083 50.7838L44.7601 52.6949L61.2825 74.7248L63.8307 72.8137ZM72.6432 61.4304L61.4305 72.6431L63.6827 74.8954L74.8954 63.6827L72.6432 61.4304ZM50.7839 47.3083L72.8137 63.8306L74.7249 61.2825L52.695 44.7601L50.7839 47.3083ZM79.2252 48.352L51.9647 44.4576L51.5143 47.6108L78.7748 51.5051L79.2252 48.352ZM77.4074 34.0714V49.9286H80.5926V34.0714H77.4074ZM51.9647 39.5424L79.2252 35.648L78.7748 32.4948L51.5142 36.3892L51.9647 39.5424ZM72.8137 20.1693L50.7839 36.6917L52.695 39.2399L74.7249 22.7174L72.8137 20.1693ZM61.4305 11.3568L72.6432 22.5695L74.8954 20.3172L63.6827 9.10455L61.4305 11.3568ZM47.3083 33.2161L63.8307 11.1862L61.2825 9.27513L44.7601 31.305L47.3083 33.2161ZM48.352 4.77477L44.4576 32.0353L47.6108 32.4858L51.5051 5.22523L48.352 4.77477Z" fill="#C40ED4" mask="url(#path-3-inside-1_6606_1653)"/>
</g>
</g>
<defs>
<radialGradient id="paint0_radial_6606_1653" cx="0" cy="0" r="1" gradientUnits="userSpaceOnUse" gradientTransform="translate(42 42) scale(50.5556 40.95)">
<stop stop-color="#76004E"/>
<stop offset="1" stop-color="#1D0028"/>
</radialGradient>
<radialGradient id="paint1_radial_6606_1653" cx="0" cy="0" r="1" gradientUnits="userSpaceOnUse" gradientTransform="translate(42 42) scale(50.5556 40.95)">
<stop stop-color="#9F0000"/>
<stop offset="1" stop-color="#1C0000"/>
</radialGradient>
<radialGradient id="paint2_radial_6606_1653" cx="0" cy="0" r="1" gradientUnits="userSpaceOnUse" gradientTransform="translate(42 42) rotate(90) scale(37)">
<stop stop-color="white"/>
<stop offset="1" stop-color="white" stop-opacity="0"/>
</radialGradient>
</defs>
</svg>

<svg xmlns="http://www.w3.org/2000/svg" width="84" height="84" fill="none" xmlns:v="https://vecta.io/nano"><rect x="1" y="1" width="82" height="82" rx="41" fill="url(#C)" stroke="#c40ed4" stroke-width="2"/><mask id="A" maskUnits="userSpaceOnUse" x="0" y="0" width="84" height="84" mask-type="alpha"><rect x="1" y="1" width="82" height="82" rx="41" fill="url(#D)" stroke="#c40ed4" stroke-width="2"/></mask><g mask="url(#A)"><g style="mix-blend-mode:overlay" opacity=".2"><mask id="B" fill="#fff"><path fill-rule="evenodd" d="M49.929 5H34.071l3.894 27.261-16.522-22.03-11.213 11.213 22.03 16.522L5 34.071v15.857l27.261-3.894-22.03 16.522 11.213 11.213 16.523-22.03L34.071 79h15.857l-3.894-27.261 16.522 22.03 11.213-11.213-22.03-16.522L79 49.929V34.071l-27.261 3.894 22.03-16.522-11.213-11.213-16.522 22.03L49.929 5z"/></mask><path fill-rule="evenodd" d="M49.929 5H34.071l3.894 27.261-16.522-22.03-11.213 11.213 22.03 16.522L5 34.071v15.857l27.261-3.894-22.03 16.522 11.213 11.213 16.523-22.03L34.071 79h15.857l-3.894-27.261 16.522 22.03 11.213-11.213-22.03-16.522L79 49.929V34.071l-27.261 3.894 22.03-16.522-11.213-11.213-16.522 22.03L49.929 5z" fill="url(#E)"/><path d="M34.071 5V3.407h-1.836l.26 1.818L34.071 5zm15.857 0l1.576.225.26-1.818h-1.836V5zM37.966 32.261l-1.274.956 2.851-1.181-1.577.225zm-16.522-22.03l1.274-.956-1.102-1.469-1.298 1.298 1.126 1.126zM10.231 21.443l-1.126-1.126-1.298 1.299 1.469 1.102.956-1.274zm22.03 16.522l-.225 1.577 1.181-2.851-.956 1.274zM5 34.071l.225-1.577-1.818-.26v1.836H5zm0 15.857H3.407v1.836l1.818-.26L5 49.929zm27.261-3.894l.956 1.274-1.181-2.851.225 1.577zm-22.03 16.522l-.956-1.274-1.469 1.102 1.298 1.298 1.126-1.126zm11.213 11.213l-1.126 1.126 1.298 1.298 1.102-1.469-1.274-.956zm16.523-22.03l1.577.225-2.851-1.181 1.274.956zM34.071 79l-1.577-.225-.26 1.818h1.836V79zm15.857 0v1.593h1.836l-.26-1.818-1.576.225zm-3.894-27.261l1.274-.956-2.851 1.181 1.577-.225zm16.522 22.03l-1.274.956 1.102 1.469 1.298-1.298-1.126-1.126zm11.213-11.213l1.126 1.126 1.299-1.298-1.469-1.102-.956 1.274zM51.74 46.034l.225-1.577-1.181 2.851.956-1.274zM79 49.929l-.225 1.576 1.818.26v-1.836H79zm0-15.857h1.593v-1.836l-1.818.26.225 1.577zm-27.261 3.894l-.956-1.274 1.181 2.851-.225-1.577zm22.03-16.522l.956 1.274 1.469-1.102-1.299-1.299-1.126 1.126zM62.557 10.231l1.126-1.126-1.298-1.298-1.102 1.469 1.274.956zm-16.522 22.03l-1.577-.225 2.851 1.181-1.274-.956zM34.071 6.593h15.857V3.407H34.071v3.185zm5.471 25.443L35.648 4.775l-3.153.45 3.894 27.26 3.153-.45zm-.303-.73L22.718 9.275l-2.548 1.911 16.522 22.03 2.548-1.911zm-18.923-22.2L9.105 20.317l2.252 2.252L22.57 11.357l-2.252-2.252zM9.275 22.717l22.03 16.522 1.911-2.548-22.03-16.522-1.911 2.548zm-4.5 12.931l27.261 3.894.45-3.153-27.261-3.894-.45 3.153zm1.818 14.28V34.071H3.407v15.857h3.185zm25.443-5.471l-27.26 3.894.45 3.153 27.26-3.894-.45-3.153zM11.186 63.831l22.03-16.522-1.911-2.548-22.03 16.522 1.911 2.548zm11.383 8.813L11.357 61.43l-2.252 2.252 11.213 11.213 2.252-2.252zm14.122-21.859l-16.522 22.03 2.548 1.911 16.522-22.03-2.548-1.911zm-1.044 28.441l3.894-27.261-3.153-.45-3.894 27.261 3.153.45zm14.281-1.818H34.071v3.185h15.857v-3.185zm-5.471-25.443l3.894 27.261 3.153-.45-3.894-27.261-3.153.45zm19.373 20.849l-16.522-22.03-2.548 1.911 16.522 22.03 2.548-1.911zm8.812-11.383L61.431 72.643l2.252 2.252 11.213-11.213-2.252-2.252zM50.784 47.308l22.03 16.522 1.911-2.548-22.03-16.522-1.911 2.548zm28.441 1.044l-27.26-3.894-.45 3.153 27.261 3.894.45-3.153zm-1.818-14.281v15.857h3.185V34.071h-3.185zm-25.443 5.471l27.261-3.894-.45-3.153-27.261 3.894.45 3.153zm20.849-19.373l-22.03 16.522 1.911 2.548 22.03-16.522-1.911-2.548zm-11.383-8.812L72.643 22.57l2.252-2.252L63.683 9.105l-2.252 2.252zM47.308 33.216l16.522-22.03-2.548-1.911-16.522 22.03 2.548 1.911zm1.044-28.441l-3.894 27.261 3.153.45 3.894-27.261-3.153-.45z" fill="#c40ed4" mask="url(#B)"/></g></g><defs><radialGradient id="C" cx="0" cy="0" r="1" gradientUnits="userSpaceOnUse" gradientTransform="translate(42 42) scale(50.5556 40.95)"><stop stop-color="#76004e"/><stop offset="1" stop-color="#1d0028"/></radialGradient><radialGradient id="D" cx="0" cy="0" r="1" gradientUnits="userSpaceOnUse" gradientTransform="translate(42 42) scale(50.5556 40.95)"><stop stop-color="#9f0000"/><stop offset="1" stop-color="#1c0000"/></radialGradient><radialGradient id="E" cx="0" cy="0" r="1" gradientUnits="userSpaceOnUse" gradientTransform="translate(42 42) rotate(90) scale(37)"><stop stop-color="#fff"/><stop offset="1" stop-color="#fff" stop-opacity="0"/></radialGradient></defs></svg>
